_includes/icons/ios-signpost.svg

<svg fill="#666" height="50" viewBox="0 0 50 50" width="50" xmlns="http://www.w3.org/2000/svg"><path d="m24.5 1c-1.367187 0-2.5 1.132813-2.5 2.5v2.5h-12c-.03125 0-.0625 0-.09375 0-.515625.046875-.910156.480469-.90625 1v12c0 .550781.449219 1 1 1h12v3h-16c-.03125 0-.0625 0-.09375 0-.269531.027344-.519531.160156-.6875.375l-5 6c-.2929688.367188-.2929688.882813 0 1.25l5 6c.191406.238281.476563.375.78125.375h16v13h2v-13h1v13h2v-13h13c.550781 0 1-.449219 1-1v-12c0-.550781-.449219-1-1-1h-13v-3h17c.304688 0 .589844-.136719.78125-.375l5-6c.292969-.367187.292969-.882812 0-1.25l-5-6c-.191406-.238281-.476562-.375-.78125-.375h-17v-2.5c0-1.367187-1.132812-2.5-2.5-2.5zm0 2c.285156 0 .5.214844.5.5v2.5h-1v-2.5c0-.285156.214844-.5.5-.5zm-13.5 5h32.53125l4.15625 5-4.15625 5h-32.53125zm13 12h1v3h-1zm-17.53125 5h32.53125v10h-32.53125l-4.15625-5z"/></svg>

<svg xmlns="http://www.w3.org/2000/svg" viewBox="0 0 50 50" width="50" height="50" fill="#666"><path d="M 24.5 1 C 23.132813 1 22 2.132813 22 3.5 L 22 6 L 10 6 C 9.96875 6 9.9375 6 9.90625 6 C 9.390625 6.046875 8.996094 6.480469 9 7 L 9 19 C 9 19.550781 9.449219 20 10 20 L 22 20 L 22 23 L 6 23 C 5.96875 23 5.9375 23 5.90625 23 C 5.636719 23.027344 5.386719 23.160156 5.21875 23.375 L 0.21875 29.375 C -0.0742188 29.742188 -0.0742188 30.257813 0.21875 30.625 L 5.21875 36.625 C 5.410156 36.863281 5.695313 37 6 37 L 22 37 L 22 50 L 24 50 L 24 37 L 25 37 L 25 50 L 27 50 L 27 37 L 40 37 C 40.550781 37 41 36.550781 41 36 L 41 24 C 41 23.449219 40.550781 23 40 23 L 27 23 L 27 20 L 44 20 C 44.304688 20 44.589844 19.863281 44.78125 19.625 L 49.78125 13.625 C 50.074219 13.257813 50.074219 12.742188 49.78125 12.375 L 44.78125 6.375 C 44.589844 6.136719 44.304688 6 44 6 L 27 6 L 27 3.5 C 27 2.132813 25.867188 1 24.5 1 Z M 24.5 3 C 24.785156 3 25 3.214844 25 3.5 L 25 6 L 24 6 L 24 3.5 C 24 3.214844 24.214844 3 24.5 3 Z M 11 8 L 43.53125 8 L 47.6875 13 L 43.53125 18 L 11 18 Z M 24 20 L 25 20 L 25 23 L 24 23 Z M 6.46875 25 L 39 25 L 39 35 L 6.46875 35 L 2.3125 30 Z"/></svg>
